X:1
T:Title
%%score { ( 1 3 ) | ( 2 4 ) }
L:1/8
M:4/4
K:Eb
V:1 treble nm="Grand Piano"
V:3 treble 
V:2 bass 
V:4 bass 
V:1
 z4 z2[Q:1/4=108] [EG][FA] | [GB]2 [GB]2 [GB]2 [Be]2 | c2 de B2 [GB]2 | c2 F2 B2 GA | %4
[M:3/4] [EG]4 [DF]2 |[M:1/4] [EG][FA] |[M:4/4] [GB]2 [GB]2 [GB]2 [Be]2 | c2 de B2 [Gc]2 | %8
 d2 F2 c2 F2 |[M:3/4] [DB]4 [DB]2 |[M:1/4] B2 |[M:4/4] z4 z2 .c2 | [Ad]2 [Ad]2 [Ad]2 [FA][GB] | %13
 [Ac]2 [Ac]2 [Ad]2 [DAc]2 |[M:3/4] [Ac]4 [GB]2 |[M:1/4] [GB]2 |[M:4/4] [Ge]2 [GB]2 A2 G2 | %17
 F2 A2 d2 c2 | B2 B2 A2 G2 |[M:3/4] [DF]4 E2 |[M:1/4] [Ge]2 |[M:4/4] d6 z2 | c6 z2 | %23
 A2 z2 z2 .[FA]2 |[M:3/4] B6 |[M:1/4] [EGB]2 |[M:4/4] [Ge]2 [GB]2 A2 G2 | F2 A2 d2 c2 | %28
 B2 B2 A2 G2 |[M:3/4] [DF]4 E2 |] %30
V:2
 z4 z2 [E,B,]2 | [E,E]2 [E,E]2 [E,E]2 [G,E]2 | [A,EA]2 [A,CA]2[K:bass] [G,E]2 [E,E]2 | %3
 [A,EA]2 [A,CE]2[K:bass] [G,B,E]2 [E,B,E]2 |[M:3/4] [B,,B,]4 [B,,B,]2 |[M:1/4] [E,B,]2 | %6
[M:4/4] [E,E]2 [E,E]2 [E,E]2[K:treble] [G,E]2 | [A,EA]2 [A,CA]2[K:bass] [G,E]2 [E,B,]2 | %8
 [F,B,F]2 [F,B,D]2 [F,=A,E]2 [F,A,E]2 |[M:3/4] [B,,B,]4 [B,,B,]2 |[M:1/4] [B,,B,]2 | %11
[M:4/4] [D,B,]2 [B,,B,]2 [D,B,]2 [B,,B,]2 | [F,B,]2 [B,,B,]2 [F,B,]2 [B,,B,]2 | %13
 [D,B,]2 [B,,B,]2 [F,B,]2 B,,2 |[M:3/4] [E,E]4 [E,E]2 |[M:1/4] [E,E]2 | %16
[M:4/4] [E,B,]2 [E,B,]2 [F,B,D]2[K:treble] [G,B,E]2 | [A,CE]2 [A,CF]2 [=A,C_G]2 [A,EG]2 | %18
 [B,EG]2 [B,G]2[K:bass] [B,D]2 [B,E]2 |[M:3/4] [B,,A,]4 [E,G,]2 |[M:1/4] [E,B,]2 | %21
[M:4/4] [F,B,]2 B,,2 F,2 z[K:treble] B | [D,B,]2 [B,,B,]2 [D,B,]2 [B,,B,]2 | [F,B,]2 B,,2 F,2 z A | %24
[M:3/4] E,2 B,,2 E,2 |[M:1/4] E,2 |[M:4/4] [E,B,]2 [E,B,]2 [F,B,D]2[K:treble] [G,B,E]2 | %27
 [A,CE]2 [A,CF]2 [=A,CF]2 [A,EF]2 | [B,EG]2 [B,G]2 [B,F]2[K:bass] [B,E]2 | %29
[M:3/4] [B,,A,]4 [E,G,]2 |] %30
V:3
 x8 | x8 | x8 | x8 |[M:3/4] x6 |[M:1/4] x2 |[M:4/4] x8 | x8 | x8 |[M:3/4] x6 |[M:1/4] x2 | %11
[M:4/4] [Ac]2 [Ac]2 [Ac]2 A-[Ae] | x8 | x8 |[M:3/4] x6 |[M:1/4] x2 |[M:4/4] x8 | x8 | x8 | %19
[M:3/4] x6 |[M:1/4] x2 |[M:4/4] A2 [B,A]2 [B,A]2 .[B,FA]2 | A2 A2 A2 [Ae]2 | %23
 d2- [B,Ad-]2 [B,Ad]2 D-[Dc] |[M:3/4] [EG]2 [EG]2 [EG]2 |[M:1/4] x2 |[M:4/4] x8 | x8 | x8 | %29
[M:3/4] x6 |] %30
V:4
 x8 | x8 | x4[K:bass] x4 | x4[K:bass] x4 |[M:3/4] x6 |[M:1/4] x2 |[M:4/4] x6[K:treble] x2 | %7
 x4[K:bass] x4 | x8 |[M:3/4] x6 |[M:1/4] x2 |[M:4/4] x8 | x8 | x8 |[M:3/4] x6 |[M:1/4] x2 | %16
[M:4/4] x6[K:treble] x2 | x8 | x4[K:bass] x4 |[M:3/4] x6 |[M:1/4] x2 | %21
[M:4/4] z4 z2 B,,2[K:treble] | x8 | z4 z2 B,,2 |[M:3/4] x6 |[M:1/4] x2 |[M:4/4] x6[K:treble] x2 | %27
 x8 | x6[K:bass] x2 |[M:3/4] x6 |] %30

